pwa/public/brewingbubbles.svg

<svg xmlns="http://www.w3.org/2000/svg" width="729" height="594" fill="none" xmlns:v="https://vecta.io/nano"><path d="M330.552 488.698c-24.465.133-49.373 20.519-48.621 49.579.752 29.325 24.51 48.787 48.975 48.346 29.553-.528 48.4-24.393 48.93-48.874.62-28.84-24.819-49.227-49.284-49.095v.044zm75.652-246.574c51.054-.881 83.572-42.094 84.501-84.363 1.061-49.799-42.87-84.98-85.12-84.76s-85.252 35.445-83.969 85.596c1.283 50.592 42.338 84.232 84.588 83.483v.044zm150.641 10.611c-85.297.441-171.965 71.507-169.399 172.778 2.566 102.064 85.385 169.96 170.682 168.462 102.904-1.805 168.647-84.935 170.46-170.223 2.168-100.479-86.446-171.457-171.743-171.017zm1.194 280.566c-48.311.836-95.206-37.691-96.666-95.592-1.46-57.416 47.736-97.572 96.047-97.792 48.355-.265 98.48 39.98 97.242 96.912-1.018 48.302-38.313 95.459-96.667 96.472h.044z" fill="#3f68ff"/><path d="M334.242 341.48v.011.011.033c-1.5 68.57-54.309 135.385-137.049 136.828C128.7 479.543 62.11 425.001 60.045 342.93v-.001c-2.063-81.351 67.575-138.467 136.153-138.861 68.54-.393 139.8 56.689 138.044 137.412zm-185.514 43.01c13.524 9.916 31.418 15.477 49.592 15.253l.01.043c43.826-.622 72.239-28.43 73.01-57.376.476-17.083-8.863-31.566-22.768-41.718s-32.449-16.044-50.658-15.978c-18.185.067-36.546 6.029-50.249 16.242-13.709 10.218-22.828 24.757-22.285 41.942l.001.003c.587 17.294 9.789 31.648 23.347 41.589z" stroke="#3f68ff" stroke-width="2"/><path d="M212.637 323.045c-24.465.132-49.372 20.518-48.62 49.579.752 29.324 24.509 48.786 48.974 48.346 29.553-.529 48.4-24.394 48.931-48.875.619-28.84-24.819-49.226-49.285-49.094v.044zm69.98-153.921c51.054-.881 83.571-42.094 84.5-84.363 1.062-49.799-42.869-84.98-85.12-84.76s-85.252 35.445-83.969 85.596c1.283 50.592 42.339 84.232 84.589 83.483v.044zm246.837-46.122c-85.296.44-171.964 71.506-169.398 172.778 2.566 102.064 85.385 169.959 170.681 168.462 102.905-1.805 168.647-84.936 170.461-170.224 2.168-100.478-86.447-171.456-171.744-171.016zm1.195 280.566c-48.311.836-95.207-37.691-96.667-95.592-1.46-57.416 47.736-97.572 96.048-97.793 48.355-.264 98.48 39.981 97.241 96.913-1.017 48.302-38.312 95.459-96.666 96.472h.044z" fill="#fff"/></svg>

<svg width="729" height="594" viewBox="0 0 729 594" fill="none" xmlns="http://www.w3.org/2000/svg">
<path d="M330.552 488.698C306.087 488.831 281.179 509.217 281.931 538.277C282.683 567.602 306.441 587.064 330.906 586.623C360.459 586.095 379.306 562.23 379.836 537.749C380.456 508.909 355.017 488.522 330.552 488.654V488.698Z" fill="#3F68FF"/>
<path d="M406.204 242.124C457.258 241.243 489.776 200.03 490.705 157.761C491.766 107.962 447.835 72.7809 405.585 73.001C363.335 73.2212 320.333 108.446 321.616 158.597C322.899 209.189 363.954 242.829 406.204 242.08V242.124Z" fill="#3F68FF"/>
<path d="M556.845 252.735C471.548 253.176 384.88 324.242 387.446 425.513C390.012 527.577 472.831 595.473 558.128 593.975C661.032 592.17 726.775 509.04 728.588 423.752C730.756 323.273 642.142 252.295 556.845 252.735ZM558.039 533.301C509.728 534.137 462.833 495.61 461.373 437.709C459.913 380.293 509.109 340.137 557.42 339.917C605.775 339.652 655.9 379.897 654.662 436.829C653.644 485.131 616.349 532.288 557.995 533.301H558.039Z" fill="#3F68FF"/>
<path d="M334.242 341.48L334.242 341.491V341.502V341.535C332.742 410.105 279.933 476.92 197.193 478.363C128.7 479.543 62.1097 425.001 60.0448 342.93L60.0448 342.929C57.9815 261.578 127.62 204.462 196.198 204.068C264.738 203.675 335.998 260.757 334.242 341.48ZM148.728 384.49C162.252 394.406 180.146 399.967 198.32 399.743L198.33 399.786C242.156 399.164 270.569 371.356 271.34 342.41C271.816 325.327 262.477 310.844 248.572 300.692C234.671 290.543 216.123 284.648 197.914 284.714C179.729 284.781 161.368 290.743 147.665 300.956C133.956 311.174 124.837 325.713 125.38 342.898L125.381 342.901C125.968 360.195 135.17 374.549 148.728 384.49Z" stroke="#3F68FF" stroke-width="2"/>
<path d="M212.637 323.045C188.172 323.177 163.265 343.563 164.017 372.624C164.769 401.948 188.526 421.41 212.991 420.97C242.544 420.441 261.391 396.576 261.922 372.095C262.541 343.255 237.103 322.869 212.637 323.001V323.045Z" fill="white"/>
<path d="M282.617 169.124C333.671 168.243 366.188 127.03 367.117 84.7607C368.179 34.9616 324.248 -0.219128 281.997 0.00102747C239.747 0.221182 196.745 35.446 198.028 85.5973C199.311 136.189 240.367 169.829 282.617 169.08V169.124Z" fill="white"/>
<path d="M529.454 123.002C444.158 123.442 357.49 194.508 360.056 295.78C362.622 397.844 445.441 465.739 530.737 464.242C633.642 462.437 699.384 379.306 701.198 294.018C703.366 193.54 614.751 122.562 529.454 123.002ZM530.649 403.568C482.338 404.404 435.442 365.877 433.982 307.976C432.522 250.56 481.718 210.404 530.03 210.183C578.385 209.919 628.51 250.164 627.271 307.096C626.254 355.398 588.959 402.555 530.605 403.568H530.649Z" fill="white"/>
</svg>
